X:1
T:343 - Sempre Firme
T:Letra: William Orcutt Cushing (1823-1902)
T:Trad.: Achilles Barbosa (1894-1967)
T:MÃºsica: Ira David Sankey (1840-1908)
M:6/4
L:1/4
Q:1/2=90
K:Db
V:1
"Db"FG=G A2 A/A/ | ABF "Ab7"AG2 | EFG "Db/Ab"BAA | "Ab"AE=E "Db"F2z | FG=G AAd | "Gb"edB "Db"BA2 | "Gb"Bcd "Db"dAF | "Ab7"AGE "Db"D2z || "Db"AFA D3 | "Ab7"cBc "Db"d3 | dAF B-AG | F3 "Ab"E2z | "Db"DFA d2c | "Gb"edB "Db"A3 | "Gb"Bcd ("Db"AF)D | "Ab7"E3 "Db"D2z |]
w: 1.~Mi-nha mo-ra-da, Je-sus, as-se-gu-ra, Paz e con-for-to na lu-ta fe-roz; DÃ¡-me teu bra-Ã§o, trans-por-ta-meÃ al-tu-ra On-dees-cu-tar po-de-rei tu-a voz. Vem dar-me paz, Ã³ meu Je-sus, DÃ¡-me teu bra_Ã§o,Ã³ Cris-to! Vou pe-re-cen-do lon-ge da cruz, Eeu em cla-mar_ in-sis-to!  
w: 2.~Tris-te, pro-cu-ro re-fÃº-gioao teu la-do, Vol-ta-mea paz, o des-can-so me vem; Quan-do na ter-ra mea-char des-pre-za-do GlÃ³-ria te-rei nou-tra pÃ¡-tria dea-lÃ©m.  
w: 3.~Quan-do da mor-te cer-car-mea tris-te-za, Fin-daa jor-na-da do mun-do cru-el, Cer-to te-rei nes-se di-aa cer-te-za Deir mea-le-grar sob i-men-so do-cel. 
W: 
W: 
W: 1. Minha morada, Jesus, assegura,
W: Paz e conforto na luta feroz;
W: DÃ¡-me teu braÃ§o, transporta-me Ã  altura
W: Onde escutar poderei tua voz.
W: 
W: (Estribilho)
W: Vem dar-me paz, Ã³ meu Jesus,
W: DÃ¡-me teu braÃ§o, Ã³ Cristo!
W: Vou perecendo longe da cruz,
W: E eu em clamar insisto!
W: 
W: 
W: 
W: 2. Triste, procuro refÃºgio ao teu lado,
W: Volta-me a paz, o descanso me vem;
W: Quando na terra me achar desprezado
W: GlÃ³ria terei noutra pÃ¡tria de alÃ©m.
W: 
W: 3. Quando da morte cercar-me a tristeza,
W: Finda a jornada do mundo cruel,
W: Certo terei nesse dia a certeza
W: De ir me alegrar sob imenso docel.
W:         
W: 				         
W:           

